public/img/clients/serviceontario.svg

<svg width="200" height="100" viewBox="0 0 200 100" fill="none" xmlns="http://www.w3.org/2000/svg">
<path fill-rule="evenodd" clip-rule="evenodd" d="M14 29H186V71H14V29ZM29.9058 56.8762C31.4039 57.1936 32.7178 57.3523 33.8477 57.3523C35.5552 57.3523 36.8946 56.981 37.8658 56.2383C38.837 55.4956 39.3226 54.4705 39.3226 53.1628C39.3226 52.2424 39.0655 51.4617 38.5513 50.8206C38.0372 50.1794 37.1009 49.478 35.7425 48.7163L34.7332 48.1545C33.9778 47.7292 33.4637 47.3706 33.1907 47.0786C32.9178 46.7866 32.7813 46.447 32.7813 46.0598C32.7813 45.5901 32.9765 45.2108 33.3669 44.922C33.7573 44.6332 34.2762 44.4888 34.9236 44.4888C35.7615 44.4888 36.9009 44.7585 38.3418 45.2981V43.0415C36.9327 42.7178 35.6663 42.5559 34.5428 42.5559C33.1399 42.5559 32.0117 42.9082 31.1579 43.6128C30.3041 44.3174 29.8772 45.2505 29.8772 46.4121C29.8772 47.2817 30.1375 48.0419 30.658 48.6925C31.1785 49.3431 32.0704 50.0239 33.3335 50.7349L34.2762 51.2585C35.0379 51.6902 35.5552 52.0631 35.8282 52.3773C36.1011 52.6915 36.2376 53.0771 36.2376 53.5342C36.2376 54.1118 36.0202 54.5688 35.5854 54.9053C35.1506 55.2417 34.5555 55.4099 33.8001 55.4099C32.721 55.4099 31.4229 55.0925 29.9058 54.4578V56.8762ZM50.0484 56.6477V54.6672C48.8614 55.1052 47.795 55.3242 46.8492 55.3242C44.8497 55.3242 43.7547 54.3276 43.5643 52.3345H50.0484C50.0484 50.2461 49.6961 48.7195 48.9916 47.7546C48.287 46.7898 47.1698 46.3074 45.64 46.3074C44.1229 46.3074 42.9026 46.8009 41.979 47.788C41.0554 48.775 40.5936 50.0779 40.5936 51.6965C40.5936 53.4104 41.0982 54.7624 42.1075 55.7527C43.1168 56.7429 44.4942 57.238 46.2398 57.238C47.4396 57.238 48.7091 57.0413 50.0484 56.6477ZM43.5262 50.7444C43.7103 48.9607 44.3863 48.0688 45.5543 48.0688C46.7032 48.0688 47.2777 48.9607 47.2777 50.7444H43.5262ZM52.662 57H55.4804V50.3635C56.185 49.2273 57.099 48.6592 58.2226 48.6592C58.5653 48.6592 58.9367 48.7322 59.3366 48.8782V46.3645C59.1652 46.3264 58.9906 46.3074 58.8129 46.3074C57.3212 46.3074 56.2104 47.0437 55.4804 48.5164V46.5454H52.662V57ZM63.8068 57H66.6252L70.6528 46.5454H68.6152L65.7111 54.0864L62.788 46.5454H59.8173L63.8068 57ZM72.4951 57H75.3135V46.5454H72.4951V57ZM72.4951 44.7839H75.3135V42.4321H72.4951V44.7839ZM86.2488 56.7715V54.8196C85.3538 55.1877 84.4842 55.3718 83.6399 55.3718C82.7132 55.3718 81.9721 55.0418 81.4167 54.3816C80.8613 53.7214 80.5835 52.8423 80.5835 51.7441C80.5835 50.6714 80.8406 49.8113 81.3548 49.1638C81.8689 48.5164 82.5481 48.1926 83.3924 48.1926C84.0843 48.1926 85.0079 48.3799 86.1631 48.7544V46.7168C85.0523 46.4438 84.0716 46.3074 83.221 46.3074C81.4627 46.3074 80.0853 46.7898 79.0887 47.7546C78.0921 48.7195 77.5938 50.0557 77.5938 51.7632C77.5938 53.4517 78.0778 54.7862 79.0458 55.767C80.0138 56.7477 81.3326 57.238 83.002 57.238C83.9986 57.238 85.0808 57.0825 86.2488 56.7715ZM97.1271 56.6477V54.6672C95.94 55.1052 94.8736 55.3242 93.9278 55.3242C91.9283 55.3242 90.8334 54.3276 90.6429 52.3345H97.1271C97.1271 50.2461 96.7748 48.7195 96.0702 47.7546C95.3656 46.7898 94.2484 46.3074 92.7186 46.3074C91.2015 46.3074 89.9812 46.8009 89.0576 47.788C88.134 48.775 87.6722 50.0779 87.6722 51.6965C87.6722 53.4104 88.1768 54.7624 89.1861 55.7527C90.1954 56.7429 91.5728 57.238 93.3185 57.238C94.5182 57.238 95.7877 57.0413 97.1271 56.6477ZM90.6048 50.7444C90.7889 48.9607 91.4649 48.0688 92.6329 48.0688C93.7818 48.0688 94.3563 48.9607 94.3563 50.7444H90.6048ZM105.92 57.3523C108.161 57.3523 109.927 56.689 111.219 55.3623C112.511 54.0356 113.156 52.2234 113.156 49.9255C113.156 47.6785 112.511 45.8884 111.219 44.5554C109.927 43.2224 108.193 42.5559 106.015 42.5559C103.825 42.5559 102.086 43.2224 100.798 44.5554C99.5089 45.8884 98.8646 47.688 98.8646 49.9541C98.8646 52.1948 99.5058 53.988 100.788 55.3337C102.07 56.6795 103.781 57.3523 105.92 57.3523ZM105.958 55.4099C104.765 55.4099 103.803 54.91 103.073 53.9103C102.343 52.9105 101.978 51.5886 101.978 49.9446C101.978 48.2878 102.345 46.9644 103.078 45.9741C103.811 44.9839 104.79 44.4888 106.015 44.4888C107.228 44.4888 108.202 44.9839 108.938 45.9741C109.675 46.9644 110.043 48.2783 110.043 49.916C110.043 51.6045 109.676 52.9423 108.943 53.9293C108.21 54.9164 107.215 55.4099 105.958 55.4099ZM115.494 57H118.312V50.4207C119.137 49.1575 119.998 48.5259 120.893 48.5259C121.68 48.5259 122.073 49.1194 122.073 50.3064V57H124.892V49.6113C124.892 48.5893 124.622 47.7832 124.082 47.1929C123.543 46.6025 122.806 46.3074 121.873 46.3074C120.42 46.3074 119.233 47.0437 118.312 48.5164V46.5454H115.494V57ZM133.389 56.9429V55.229C133.053 55.3179 132.764 55.3623 132.523 55.3623C131.476 55.3623 130.952 54.7212 130.952 53.439V48.3069H133.189V46.5454H130.952V44.4602L128.134 44.7839V46.5454H126.962V48.3069H128.134V53.8103C128.134 56.0955 129.355 57.238 131.799 57.238C132.187 57.238 132.717 57.1396 133.389 56.9429ZM140.726 55.8765H140.849C141.179 56.7842 141.922 57.238 143.077 57.238C143.534 57.238 144.061 57.1492 144.658 56.9714L144.591 55.3909C144.439 55.4163 144.315 55.429 144.22 55.429C143.693 55.429 143.43 55.0195 143.43 54.2007V49.5732C143.43 47.396 142.062 46.3074 139.326 46.3074C138.075 46.3074 136.812 46.5486 135.536 47.031V48.9734C136.66 48.3513 137.771 48.0403 138.869 48.0403C140.107 48.0403 140.726 48.583 140.726 49.6685V50.6206H139.973C138.253 50.6206 136.931 50.9332 136.008 51.5585C135.084 52.1837 134.622 53.074 134.622 54.2292C134.622 55.1179 134.908 55.8415 135.479 56.4001C136.051 56.9587 136.793 57.238 137.707 57.238C138.78 57.238 139.786 56.7842 140.726 55.8765ZM140.726 54.3625C140.034 55.0037 139.358 55.3242 138.698 55.3242C138.31 55.3242 137.985 55.1925 137.722 54.9291C137.458 54.6656 137.326 54.3403 137.326 53.9531C137.326 52.8105 138.237 52.2393 140.059 52.2393H140.726V54.3625ZM146.767 57H149.585V50.3635C150.29 49.2273 151.204 48.6592 152.327 48.6592C152.67 48.6592 153.042 48.7322 153.441 48.8782V46.3645C153.27 46.3264 153.096 46.3074 152.918 46.3074C151.426 46.3074 150.315 47.0437 149.585 48.5164V46.5454H146.767V57ZM155.331 57H158.15V46.5454H155.331V57ZM155.331 44.7839H158.15V42.4321H155.331V44.7839ZM165.762 57.238C167.47 57.238 168.809 56.7524 169.78 55.7812C170.751 54.8101 171.237 53.4675 171.237 51.7537C171.237 50.0779 170.753 48.7512 169.785 47.7737C168.817 46.7961 167.498 46.3074 165.829 46.3074C164.166 46.3074 162.85 46.7961 161.882 47.7737C160.914 48.7512 160.43 50.0842 160.43 51.7727C160.43 53.4421 160.911 54.7704 161.873 55.7574C162.834 56.7445 164.131 57.238 165.762 57.238ZM165.81 55.4766C165.073 55.4766 164.493 55.1433 164.067 54.4768C163.642 53.8103 163.429 52.9089 163.429 51.7727C163.429 50.6238 163.644 49.7192 164.072 49.0591C164.501 48.3989 165.086 48.0688 165.829 48.0688C166.578 48.0688 167.167 48.3989 167.595 49.0591C168.024 49.7192 168.238 50.6174 168.238 51.7537C168.238 54.2356 167.428 55.4766 165.81 55.4766Z" fill="black"/>
</svg>

<svg xmlns="http://www.w3.org/2000/svg" focusable="false" role="img" viewBox="0 0 200 100" fill="currentColor">
  <path fill-rule="evenodd" d="M14 29h172v42H14V29zm15.906 27.876c1.498.318 2.812.476 3.942.476 1.707 0 3.047-.371 4.018-1.114.971-.742 1.457-1.767 1.457-3.075 0-.92-.258-1.701-.772-2.342-.514-.642-1.45-1.343-2.809-2.105l-1.009-.562c-.755-.425-1.27-.783-1.542-1.075a1.446 1.446 0 01-.41-1.02c0-.469.196-.848.586-1.137.39-.289.91-.433 1.557-.433.837 0 1.977.27 3.418.81V43.04c-1.41-.323-2.676-.485-3.8-.485-1.402 0-2.53.352-3.384 1.057-.854.704-1.28 1.638-1.28 2.8 0 .869.26 1.629.78 2.28.52.65 1.412 1.33 2.675 2.042l.943.523c.762.432 1.28.805 1.552 1.12.273.313.41.7.41 1.156 0 .578-.218 1.035-.653 1.371-.434.337-1.03.505-1.785.505-1.079 0-2.377-.317-3.894-.952v2.418zm20.142-.228v-1.98c-1.187.437-2.253.656-3.199.656-2 0-3.094-.996-3.285-2.99h6.484c0-2.088-.352-3.615-1.056-4.58-.705-.964-1.822-1.447-3.352-1.447-1.517 0-2.737.494-3.661 1.481-.924.987-1.385 2.29-1.385 3.909 0 1.713.504 3.065 1.514 4.056 1.009.99 2.386 1.485 4.132 1.485 1.2 0 2.47-.197 3.808-.59zm-6.522-5.904c.184-1.783.86-2.675 2.028-2.675 1.15 0 1.724.892 1.724 2.675h-3.752zM52.662 57h2.818v-6.636c.705-1.137 1.619-1.705 2.743-1.705.342 0 .714.073 1.114.22v-2.514a2.406 2.406 0 00-.524-.058c-1.492 0-2.603.737-3.333 2.21v-1.972h-2.818V57zm11.145 0h2.818l4.028-10.455h-2.038l-2.904 7.541-2.923-7.54h-2.97L63.806 57zm8.688 0h2.819V46.545h-2.819V57zm0-12.216h2.819v-2.352h-2.819v2.352zM86.25 56.772V54.82c-.895.368-1.765.552-2.61.552-.926 0-1.667-.33-2.222-.99-.556-.66-.834-1.54-.834-2.638 0-1.073.258-1.933.772-2.58.514-.648 1.193-.971 2.037-.971.692 0 1.616.187 2.771.561v-2.037c-1.11-.273-2.091-.41-2.942-.41-1.758 0-3.136.483-4.132 1.448-.997.964-1.495 2.3-1.495 4.008 0 1.689.484 3.023 1.452 4.004.968.98 2.287 1.471 3.956 1.471.997 0 2.079-.155 3.247-.466zm10.878-.124v-1.98c-1.187.437-2.253.656-3.2.656-1.999 0-3.094-.996-3.284-2.99h6.484c0-2.088-.352-3.615-1.057-4.58-.704-.964-1.822-1.447-3.351-1.447-1.517 0-2.738.494-3.661 1.481-.924.987-1.386 2.29-1.386 3.909 0 1.713.505 3.065 1.514 4.056 1.01.99 2.387 1.485 4.132 1.485 1.2 0 2.47-.197 3.81-.59zm-6.522-5.904c.184-1.783.86-2.675 2.028-2.675 1.149 0 1.723.892 1.723 2.675h-3.751zm15.315 6.608c2.241 0 4.007-.663 5.299-1.99 1.292-1.326 1.937-3.139 1.937-5.437 0-2.246-.645-4.037-1.937-5.37-1.292-1.333-3.026-2-5.204-2-2.19 0-3.929.667-5.217 2-1.29 1.333-1.933 3.133-1.933 5.4 0 2.24.64 4.033 1.923 5.379 1.282 1.345 2.993 2.018 5.132 2.018zm.038-1.942c-1.193 0-2.155-.5-2.885-1.5s-1.095-2.321-1.095-3.965c0-1.657.367-2.98 1.1-3.97.733-.991 1.712-1.486 2.937-1.486 1.213 0 2.187.495 2.923 1.485.737.99 1.105 2.304 1.105 3.942 0 1.689-.367 3.026-1.1 4.013-.733.987-1.728 1.48-2.985 1.48zm9.536 1.59h2.818v-6.58c.825-1.263 1.686-1.894 2.581-1.894.787 0 1.18.593 1.18 1.78V57h2.819v-7.389c0-1.022-.27-1.828-.81-2.418-.539-.59-1.276-.886-2.209-.886-1.453 0-2.64.737-3.561 2.21v-1.972h-2.818V57zm17.895-.057v-1.714a3.47 3.47 0 01-.866.133c-1.047 0-1.571-.64-1.571-1.923v-5.132h2.237v-1.762h-2.237V44.46l-2.818.324v1.761h-1.172v1.762h1.172v5.503c0 2.285 1.221 3.428 3.665 3.428.388 0 .918-.098 1.59-.295zm7.337-1.066h.123c.33.907 1.073 1.361 2.228 1.361.457 0 .984-.089 1.581-.267l-.067-1.58a2.354 2.354 0 01-.371.038c-.527 0-.79-.41-.79-1.228v-4.628c0-2.177-1.368-3.266-4.104-3.266-1.251 0-2.514.242-3.79.724v1.942c1.124-.622 2.235-.933 3.333-.933 1.238 0 1.857.543 1.857 1.629v.952h-.753c-1.72 0-3.042.312-3.965.938-.924.625-1.386 1.515-1.386 2.67 0 .889.286 1.613.857 2.171.572.559 1.314.838 2.228.838 1.073 0 2.079-.454 3.019-1.361zm0-1.515c-.692.642-1.368.962-2.028.962-.388 0-.713-.131-.976-.395a1.325 1.325 0 01-.396-.976c0-1.143.911-1.714 2.733-1.714h.667v2.123zM146.767 57h2.818v-6.636c.705-1.137 1.619-1.705 2.742-1.705.343 0 .715.073 1.114.22v-2.514a2.395 2.395 0 00-.523-.058c-1.492 0-2.603.737-3.333 2.21v-1.972h-2.818V57zm8.564 0h2.819V46.545h-2.819V57zm0-12.216h2.819v-2.352h-2.819v2.352zm10.431 12.454c1.708 0 3.047-.486 4.018-1.457.971-.97 1.457-2.313 1.457-4.027 0-1.676-.484-3.003-1.452-3.98-.968-.978-2.287-1.467-3.956-1.467-1.663 0-2.979.49-3.947 1.467-.968.977-1.452 2.31-1.452 3.999 0 1.67.481 2.997 1.443 3.984.961.988 2.258 1.481 3.889 1.481zm.048-1.761c-.737 0-1.317-.334-1.743-1-.425-.667-.638-1.568-.638-2.704 0-1.15.215-2.054.643-2.714.429-.66 1.014-.99 1.757-.99.749 0 1.338.33 1.766.99.429.66.643 1.558.643 2.695 0 2.482-.81 3.723-2.428 3.723z" clip-rule="evenodd"/>
</svg>
